assets/Broom/Flat/broom_flat.svg

<svg width="32" height="32" viewBox="0 0 32 32" fill="none" xmlns="http://www.w3.org/2000/svg">
<path d="M14.9996 20.1799C14.9996 20.1799 15.6647 19.9757 16.3879 20.0982L18.8205 21.539C19.3805 22.1924 19.3805 23.0149 19.3805 23.0149C19.4505 24.3974 18.8555 26.0307 18.6338 26.7948C18.0213 28.6907 16.5805 29.5073 14.9996 29.5482L7.00221 29.6007C6.53551 29.624 5.50305 29.0523 6.5764 27.9907C7.73722 26.8707 11.6514 23.4465 12.9055 21.8015C12.9055 21.8015 13.5763 20.6757 14.9996 20.1799Z" fill="#FFB02E"/>
<path d="M28.186 2.30838C28.8441 2.68729 29.0705 3.52796 28.6916 4.18606L19.1916 20.6861L16.8083 19.3139L26.3083 2.81391C26.6873 2.15581 27.5279 1.92947 28.186 2.30838Z" fill="#7D4533"/>
<path d="M19.3789 20.3437L17 19C17 19 16.4726 18.8867 16.2188 19.2891C15.8242 19.9648 16.293 20.1953 16.293 20.1953L18.6914 21.5859C19.0195 21.7695 19.9844 21.3281 19.3789 20.3437Z" fill="#9B9B9B"/>
<path d="M13.2976 21.1798C13.1153 21.0814 12.8879 21.1494 12.7895 21.3316C12.6911 21.5139 12.7591 21.7414 12.9413 21.8398L19.0419 25.133C19.2241 25.2314 19.4516 25.1634 19.55 24.9812C19.6484 24.7989 19.5804 24.5714 19.3982 24.4731L13.2976 21.1798Z" fill="#F8312F"/>
<path d="M12.2971 22.4388C12.1145 22.3411 11.8873 22.4099 11.7896 22.5925C11.6918 22.7751 11.7607 23.0023 11.9433 23.1001L18.6058 26.6653C18.7884 26.7631 19.0156 26.6942 19.1133 26.5116C19.211 26.329 19.1422 26.1018 18.9596 26.0041L12.2971 22.4388Z" fill="#F8312F"/>
</svg>

<svg xmlns="http://www.w3.org/2000/svg" width="32" height="32" fill="none"><path fill="#FFB02E" d="M15 20.18s.665-.204 1.388-.082l2.432 1.441c.56.653.56 1.476.56 1.476.07 1.382-.524 3.016-.746 3.78-.613 1.896-2.053 2.712-3.634 2.753l-7.998.053c-.466.023-1.499-.549-.426-1.61 1.161-1.12 5.075-4.544 6.33-6.19 0 0 .67-1.125 2.094-1.621Z"/><path fill="#7D4533" d="M28.186 2.308c.658.38.884 1.22.506 1.878l-9.5 16.5-2.384-1.372 9.5-16.5a1.375 1.375 0 0 1 1.878-.506Z"/><path fill="#9B9B9B" d="M19.379 20.344 17 19s-.527-.113-.781.29c-.395.675.074.905.074.905l2.398 1.39c.329.184 1.293-.257.688-1.241Z"/><path fill="#F8312F" d="M13.298 21.18a.375.375 0 1 0-.357.66l6.1 3.293a.375.375 0 0 0 .357-.66l-6.1-3.293ZM12.297 22.439a.375.375 0 1 0-.354.661l6.663 3.565a.375.375 0 1 0 .354-.66l-6.663-3.566Z"/></svg>
